src/assets/icons/ico_flexibility.svg

<?xml version="1.0" encoding="utf-8"?>
<!-- Generator: Adobe Illustrator 26.0.1, SVG Export Plug-In . SVG Version: 6.00 Build 0)  -->
<svg version="1.1" id="Layer_1" xmlns="http://www.w3.org/2000/svg" xmlns:xlink="http://www.w3.org/1999/xlink" x="0px" y="0px"
	 viewBox="0 0 64 64" style="enable-background:new 0 0 64 64;" xml:space="preserve">
<style type="text/css">
	.st0{fill:#43BBC4;}
</style>
<path class="st0" d="M15.46,19.4135v24.3424c0,1.5493,1.2607,2.8101,2.8101,2.8101h13.5898c0.2764,0,0.5-0.2236,0.5-0.5
	s-0.2236-0.5-0.5-0.5H18.27c-0.998,0-1.8101-0.812-1.8101-1.8101V19.8965H47.54v9.9194c0,0.2764,0.2236,0.5,0.5,0.5
	s0.5-0.2236,0.5-0.5V19.4135c0.0002-0.006,0.0034-0.0109,0.0034-0.017s-0.0032-0.011-0.0034-0.017v-3.0836
	c0-1.5493-1.2607-2.8101-2.8101-2.8101h-2.4692V12.418c0-0.2764-0.2236-0.5-0.5-0.5s-0.5,0.2236-0.5,0.5v1.0679h-3.3042V12.418
	c0-0.2764-0.2236-0.5-0.5-0.5s-0.5,0.2236-0.5,0.5v1.0679h-3.3042V12.418c0-0.2764-0.2236-0.5-0.5-0.5s-0.5,0.2236-0.5,0.5v1.0679
	h-3.3047V12.418c0-0.2764-0.2236-0.5-0.5-0.5s-0.5,0.2236-0.5,0.5v1.0679h-3.3042V12.418c0-0.2764-0.2236-0.5-0.5-0.5
	s-0.5,0.2236-0.5,0.5v1.0679h-3.3042V12.418c0-0.2764-0.2236-0.5-0.5-0.5s-0.5,0.2236-0.5,0.5v1.0679H18.27
	c-1.5493,0-2.8101,1.2607-2.8101,2.8101v3.0836c-0.0002,0.006-0.0034,0.0109-0.0034,0.017S15.4598,19.4075,15.46,19.4135z
	 M18.27,14.4858h2.4692v1.3232c0,0.2764,0.2236,0.5,0.5,0.5s0.5-0.2236,0.5-0.5v-1.3232h3.3042v1.3232c0,0.2764,0.2236,0.5,0.5,0.5
	s0.5-0.2236,0.5-0.5v-1.3232h3.3042v1.3232c0,0.2764,0.2236,0.5,0.5,0.5s0.5-0.2236,0.5-0.5v-1.3232h3.3047v1.3232
	c0,0.2764,0.2236,0.5,0.5,0.5s0.5-0.2236,0.5-0.5v-1.3232h3.3042v1.3232c0,0.2764,0.2236,0.5,0.5,0.5s0.5-0.2236,0.5-0.5v-1.3232
	h3.3042v1.3232c0,0.2764,0.2236,0.5,0.5,0.5s0.5-0.2236,0.5-0.5v-1.3232H45.73c0.998,0,1.8101,0.812,1.8101,1.8101v2.6006H16.46
	v-2.6006C16.46,15.2979,17.272,14.4858,18.27,14.4858z"/>
<path class="st0" d="M33.2065,41.6309c0,5.7627,4.6885,10.4512,10.4512,10.4512s10.4512-4.6885,10.4512-10.4512
	s-4.6885-10.4512-10.4512-10.4512S33.2065,35.8682,33.2065,41.6309z M48.8657,36.4229c0.0977,0.0977,0.2256,0.1465,0.3535,0.1465
	s0.2559-0.0488,0.3535-0.1465l1.1015-1.1015c1.403,1.5587,2.2919,3.5809,2.4093,5.8095h-1.5611c-0.2764,0-0.5,0.2236-0.5,0.5
	s0.2236,0.5,0.5,0.5h1.5611c-0.1174,2.2286-1.0063,4.2508-2.4093,5.8095l-1.1015-1.1015c-0.1953-0.1953-0.5117-0.1953-0.707,0
	s-0.1953,0.5117,0,0.707l1.1015,1.1015c-1.5587,1.403-3.5809,2.2919-5.8095,2.4093v-1.5606c0-0.2764-0.2236-0.5-0.5-0.5
	s-0.5,0.2236-0.5,0.5v1.5606c-2.2286-0.1174-4.2508-1.0063-5.8095-2.4093l1.1015-1.1015c0.1953-0.1953,0.1953-0.5117,0-0.707
	s-0.5117-0.1953-0.707,0l-1.1015,1.1015c-1.403-1.5587-2.2919-3.5809-2.4093-5.8095h1.5606c0.2764,0,0.5-0.2236,0.5-0.5
	s-0.2236-0.5-0.5-0.5h-1.5606c0.1174-2.2286,1.0063-4.2508,2.4093-5.8095l1.1015,1.1015c0.0977,0.0977,0.2256,0.1465,0.3535,0.1465
	s0.2559-0.0488,0.3535-0.1465c0.1953-0.1953,0.1953-0.5117,0-0.707l-1.1015-1.1015c1.5587-1.403,3.5809-2.2919,5.8095-2.4093v1.5606
	c0,0.2764,0.2236,0.5,0.5,0.5s0.5-0.2236,0.5-0.5V32.205c2.2286,0.1174,4.2508,1.0063,5.8095,2.4093l-1.1015,1.1015
	C48.6704,35.9111,48.6704,36.2275,48.8657,36.4229z"/>
<path class="st0" d="M47.0107,41.1309h-2.853v-3.3433c0-0.2764-0.2236-0.5-0.5-0.5s-0.5,0.2236-0.5,0.5v3.8433
	c0,0.2764,0.2236,0.5,0.5,0.5h3.353c0.2764,0,0.5-0.2236,0.5-0.5S47.2871,41.1309,47.0107,41.1309z"/>
</svg>

<?xml version="1.0" encoding="UTF-8" standalone="no"?>
<!DOCTYPE svg PUBLIC "-//W3C//DTD SVG 1.1//EN" "http://www.w3.org/Graphics/SVG/1.1/DTD/svg11.dtd">
<svg width="100%" height="100%" viewBox="0 0 65 64" version="1.1" xmlns="http://www.w3.org/2000/svg" xmlns:xlink="http://www.w3.org/1999/xlink" xml:space="preserve" xmlns:serif="http://www.serif.com/" style="fill-rule:evenodd;clip-rule:evenodd;stroke-linejoin:round;stroke-miterlimit:2;">
    <g transform="matrix(1,0,0,1,-146,0)">
        <g transform="matrix(0.0625,0,0,0.0833333,146.422,7.10543e-15)">
            <rect id="ico_flexibility" x="0" y="0" width="1024" height="768" style="fill:none;"/>
            <g id="ico_flexibility1" serif:id="ico_flexibility">
                <g id="ico_flexibility.svg" transform="matrix(16,0,0,12,512,384)">
                    <g transform="matrix(1,0,0,1,-32,-32)">
                        <g>
                            <path d="M15.46,19.414L15.46,43.756C15.46,45.305 16.721,46.566 18.27,46.566L31.86,46.566C32.136,46.566 32.36,46.342 32.36,46.066C32.36,45.79 32.136,45.566 31.86,45.566L18.27,45.566C17.272,45.566 16.46,44.754 16.46,43.756L16.46,19.897L47.54,19.897L47.54,29.816C47.54,30.092 47.764,30.316 48.04,30.316C48.316,30.316 48.54,30.092 48.54,29.816L48.54,19.414C48.54,19.408 48.543,19.403 48.543,19.397C48.543,19.39 48.54,19.386 48.54,19.38L48.54,16.296C48.54,14.747 47.279,13.486 45.73,13.486L43.261,13.486L43.261,12.418C43.261,12.142 43.037,11.918 42.761,11.918C42.484,11.918 42.261,12.142 42.261,12.418L42.261,13.486L38.957,13.486L38.957,12.418C38.957,12.142 38.733,11.918 38.457,11.918C38.18,11.918 37.957,12.142 37.957,12.418L37.957,13.486L34.652,13.486L34.652,12.418C34.652,12.142 34.429,11.918 34.152,11.918C33.876,11.918 33.652,12.142 33.652,12.418L33.652,13.486L30.348,13.486L30.348,12.418C30.348,12.142 30.124,11.918 29.848,11.918C29.571,11.918 29.348,12.142 29.348,12.418L29.348,13.486L26.043,13.486L26.043,12.418C26.043,12.142 25.82,11.918 25.543,11.918C25.267,11.918 25.043,12.142 25.043,12.418L25.043,13.486L21.739,13.486L21.739,12.418C21.739,12.142 21.516,11.918 21.239,11.918C20.963,11.918 20.739,12.142 20.739,12.418L20.739,13.486L18.27,13.486C16.721,13.486 15.46,14.747 15.46,16.296L15.46,19.38C15.46,19.386 15.457,19.391 15.457,19.397C15.457,19.403 15.46,19.408 15.46,19.414ZM18.27,14.486L20.739,14.486L20.739,15.809C20.739,16.085 20.963,16.309 21.239,16.309C21.516,16.309 21.739,16.085 21.739,15.809L21.739,14.486L25.043,14.486L25.043,15.809C25.043,16.085 25.267,16.309 25.543,16.309C25.82,16.309 26.043,16.085 26.043,15.809L26.043,14.486L29.348,14.486L29.348,15.809C29.348,16.085 29.571,16.309 29.848,16.309C30.124,16.309 30.348,16.085 30.348,15.809L30.348,14.486L33.652,14.486L33.652,15.809C33.652,16.085 33.876,16.309 34.152,16.309C34.429,16.309 34.652,16.085 34.652,15.809L34.652,14.486L37.957,14.486L37.957,15.809C37.957,16.085 38.18,16.309 38.457,16.309C38.733,16.309 38.957,16.085 38.957,15.809L38.957,14.486L42.261,14.486L42.261,15.809C42.261,16.085 42.484,16.309 42.761,16.309C43.037,16.309 43.261,16.085 43.261,15.809L43.261,14.486L45.73,14.486C46.728,14.486 47.54,15.298 47.54,16.296L47.54,18.896L16.46,18.896L16.46,16.296C16.46,15.298 17.272,14.486 18.27,14.486Z" style="fill:rgb(26,91,87);fill-rule:nonzero;"/>
                            <path d="M33.207,41.631C33.207,47.394 37.895,52.082 43.658,52.082C49.42,52.082 54.109,47.394 54.109,41.631C54.109,35.868 49.42,31.18 43.658,31.18C37.895,31.18 33.207,35.868 33.207,41.631ZM48.866,36.423C48.963,36.521 49.091,36.569 49.219,36.569C49.347,36.569 49.475,36.521 49.573,36.423L50.674,35.321C52.077,36.88 52.966,38.902 53.083,41.131L51.522,41.131C51.246,41.131 51.022,41.354 51.022,41.631C51.022,41.907 51.246,42.131 51.522,42.131L53.083,42.131C52.966,44.359 52.077,46.382 50.674,47.94L49.573,46.839C49.377,46.644 49.061,46.644 48.866,46.839C48.67,47.034 48.67,47.351 48.866,47.546L49.967,48.647C48.408,50.05 46.386,50.939 44.158,51.057L44.158,49.496C44.158,49.22 43.934,48.996 43.658,48.996C43.381,48.996 43.158,49.22 43.158,49.496L43.158,51.057C40.929,50.939 38.907,50.05 37.348,48.647L38.45,47.546C38.645,47.351 38.645,47.034 38.45,46.839C38.254,46.644 37.938,46.644 37.743,46.839L36.641,47.94C35.238,46.382 34.349,44.359 34.232,42.131L35.792,42.131C36.069,42.131 36.292,41.907 36.292,41.631C36.292,41.354 36.069,41.131 35.792,41.131L34.232,41.131C34.349,38.902 35.238,36.88 36.641,35.321L37.743,36.423C37.84,36.521 37.968,36.569 38.096,36.569C38.224,36.569 38.352,36.521 38.45,36.423C38.645,36.228 38.645,35.911 38.45,35.716L37.348,34.614C38.907,33.211 40.929,32.322 43.158,32.205L43.158,33.766C43.158,34.042 43.381,34.266 43.658,34.266C43.934,34.266 44.158,34.042 44.158,33.766L44.158,32.205C46.386,32.322 48.408,33.211 49.967,34.614L48.866,35.716C48.67,35.911 48.67,36.228 48.866,36.423Z" style="fill:rgb(26,91,87);fill-rule:nonzero;"/>
                            <path d="M47.011,41.131L44.158,41.131L44.158,37.788C44.158,37.511 43.934,37.288 43.658,37.288C43.381,37.288 43.158,37.511 43.158,37.788L43.158,41.631C43.158,41.907 43.381,42.131 43.658,42.131L47.011,42.131C47.287,42.131 47.511,41.907 47.511,41.631C47.511,41.354 47.287,41.131 47.011,41.131Z" style="fill:rgb(26,91,87);fill-rule:nonzero;"/>
                        </g>
                    </g>
                </g>
            </g>
        </g>
    </g>
</svg>
